X:33
T:Que pas un ne recule. [FJ33]
S:Festin joyeux.  Music page 16.
Z:transcribed by Eric Conrad, 2021.
N:NB The meter is given simply as "2"
N:NB In the MS, the G is the bottom line of the staff
N:NB Repeat marks were added at beginning and end.
N:NB The MS repeat mark is 4 vertical dots enclosed by bars on both sides.
N:NB The plus signs seem to indicate some kind of roll or trill.
M:2/2
L:1/4
% K:C clef=treble1 % staff GBdfa
K:C % no sharps or flats in sig, ending on C (second space in MS)
|: e2 | fg cd | ed e2 | fg cd | "^+"e2 :: d>d |
de cd | "^+"B2 c>d | eA d>c | "^+"BG ef |
ge af | g2 gc | fe "^+"d>c | c2 :|

